!!!OTL: 548. Treue Liebe.
!!!ARE: Europa, Mitteleuropa, Deutschland
!!!SCT: E0548A
!!!TXL: @@DE
!!!YEM: Copyright 1995, estate of Helmut Schaffrath.
**kern	**text
*ICvox	*
*M2/4	*
*k[b-e-]	*
*B-:	*
=1	=1
{4dd	Ach
8b-	wie
8g	iſts
=2	=2
8.g	mög-
16f	-lich
4f}	dann,
=3	=3
{4cc	daß
8b-	ich
8cc	dich
=4	=4
8dd	laſ-
8b-	-ſen
4f}	kann!
=5	=5
{4dd	Hab
8b-	dich
8f	von
=6	=6
8g	Her-
8ee-	-ʒen
4dd}	lieb,
=7	=7
{4cc	das
8dd	glau-
8cc	-be
=8	=8
4f	mir.
4r}	.
=9	=9
{4cc	Du
8dd	haſt
8cc	die
=10	=10
8b-	See-
8g	-le
4f}	mein
=11	=11
{4dd	ſo
8ee-	ganʒ
8dd	ge-
=12	=12
8dd	-nom-
8cc	-men
4cc}	ein,
=13	=13
{4f	daß
8g	ich
8f	kein
=14	=14
8ff	An-
8ee-	-dre
4cc}	lieb,
=15	=15
{4b-	als
8cc	dich
8a	al-
=16	=16
4b-	-lein.
4r}	.
==	==
!!!AGN: Liebes - Lied
!!!ONB: ESAC (Essen Associative Code) Database: ERK1
!!!AMT: simple duple
!!!AIN: vox
!!!EED: Helmut Schaffrath
!!!EEV: 1.0
!!!GTL: Liebeslieder [Neuere (aus dem 18. bis 19. Jahrh.) - Liebeslust]
!!!URL-scan: https://rosdok.uni-rostock.de/mcrviewer/recordIdentifier/rosdok_ppn745177662/iview2/phys_0377.iview2?x=-128.77276441889308&y=1176.4999580113217&scale=0.5870222003877485&rotation=0&layout=singlePageLayout
!!!ENC: Anna Maria Matuszewska
!!!EEV: 2024/10/12
*-	*-
